ui/StatusQ/src/assets/img/icons/secret.svg

<svg fill="none" height="25" viewBox="0 0 24 25" width="24" xmlns="http://www.w3.org/2000/svg"><g fill="#000"><path d="m5.00003 4.5.31623-.94868c-.2662-.08874-.55743-.06155-.80261.07493-.24517.13648-.42172.36968-.48656.64268zm13.99997 0 .9703-.24202c-.0674-.27035-.2446-.50031-.4888-.63446s-.5334-.16032-.7977-.0722zm1 6-.9965.083zm-15.99997 0-.9955-.0948zm14.99997-6c-.9702.24202-.9703.24195-.9703.2419v-.00004c0-.00001 0 .00003 0 .00011.0001.00017.0002.00052.0003.00105.0003.00106.0007.00284.0013.00533.0013.00497.0032.01278.0057.02333.0052.0211.013.05316.023.09544.0202.08456.0496.20995.0858.37026.0725.32076.172.78052.2792 1.33226.2151 1.1072.4581 2.56831.5785 4.01336l1.9931-.166c-.1287-1.54459-.3858-3.08347-.6084-4.22886-.1116-.57456-.2154-1.05425-.2915-1.39135-.0381-.16863-.0693-.30179-.0912-.39353-.0109-.04587-.0195-.08141-.0255-.10587-.003-.01223-.0053-.02169-.0069-.02828-.0009-.0033-.0015-.00589-.002-.00775-.0002-.00092-.0004-.00167-.0005-.00223-.0001-.00029-.0001-.00052-.0002-.00071 0-.0001 0-.00021-.0001-.00025 0-.0001 0-.00019-.9703.24183zm-14.00447 6.0948c.1381-1.45074.38214-2.91745.59348-4.02775.10536-.55355.20193-1.01501.27194-1.33716.03499-.16101.06331-.28705.08273-.3722.00971-.04256.01719-.07489.02217-.09625.00248-.01068.00434-.01861.00554-.0237.0006-.00255.00103-.00439.0013-.0055.00013-.00056.00022-.00094.00027-.00113.00002-.0001.00003-.00015.00003-.00016 0 0 0 .00003 0 .00002-.00001.00004-.00002.0001-.97296-.23097s-.97296-.23099-.97298-.2309c-.00001.00004-.00003.00014-.00005.00023-.00004.00017-.0001.00039-.00016.00066-.00013.00054-.0003.00126-.00051.00216-.00043.00181-.00103.00434-.00179.00758-.00153.0065-.00372.01585-.00654.02797-.00565.02425-.01382.05958-.02424.10524-.02083.09133-.05064.22405-.08719.39222-.07307.3362-.17319.81478-.28229 1.38791-.21758 1.14308-.47355 2.67638-.61975 4.21213zm14.00797-.0118c.2273 2.7274-.6825 5.2318-2.104 7.0514-1.4402 1.8434-3.3021 2.8656-4.8995 2.8656v2c2.4026 0 4.7907-1.4778 6.4755-3.6344 1.7035-2.1804 2.7938-5.176 2.5211-8.4486zm-7.0035 9.917c-1.5998 0-3.47974-1.0247-4.92785-2.8678-1.42889-1.8186-2.33553-4.3178-2.07662-7.0374l-1.991-.1896c-.31229 3.2804.78107 6.2812 2.49498 8.4626 1.69469 2.1569 4.10034 3.6322 6.50049 3.6322zm-6.99997-16c-.31623.94868-.31603.94875-.31582.94882.00008.00003.0003.0001.00047.00016.00034.00011.00072.00024.00116.00038.00086.00029.00191.00063.00313.00104.00246.00081.00565.00186.00957.00313.00783.00256.01855.00603.03212.01036.02712.00866.06559.02074.11493.03575.09865.03003.24082.07181.42257.12137.36336.0991.8858.22958 1.53575.35957 1.29792.25958 3.11521.51942 5.19609.51942v-2c-1.9191 0-3.60177-.24016-4.80386-.48058-.60005-.12001-1.0776-.23953-1.40174-.32793-.162-.04419-.28546-.08053-.36649-.1052-.04051-.01232-.0704-.02173-.08917-.02772-.00939-.00299-.016-.00514-.01977-.00637-.00188-.00061-.00305-.001-.00351-.00115-.00023-.00007-.00028-.00009-.00014-.00005.00006.00003.00017.00006.00033.00012.00008.00002.00023.00007.00027.00008.00016.00006.00034.00012-.31589.9488zm6.99997 2c2.0809 0 3.8982-.25984 5.1961-.51942.65-.12999 1.1724-.26047 1.5358-.35957.1817-.04956.3239-.09134.4226-.12137.0493-.01501.0878-.02709.1149-.03575.0136-.00433.0243-.0078.0321-.01036.0039-.00127.0071-.00232.0096-.00313.0012-.00041.0023-.00075.0031-.00104.0005-.00014.0008-.00027.0012-.00038.0001-.00006.0004-.00013.0005-.00016.0002-.00007.0004-.00014-.3159-.94882-.3162-.94868-.316-.94874-.3159-.9488.0001-.00001.0002-.00006.0003-.00008.0002-.00006.0003-.00009.0003-.00012.0002-.00004.0001-.00002-.0001.00005-.0005.00015-.0016.00054-.0035.00115-.0038.00123-.0104.00338-.0198.00637-.0188.00599-.0486.0154-.0892.02772-.081.02467-.2044.06101-.3664.1052-.3242.0884-.8017.20792-1.4018.32793-1.2021.24042-2.8848.48058-4.8039.48058z"/><path d="m12 18.5c1.7553 0 3.0075-1.1318 3.8198-2.2601.4367-.6066-.3134-1.2473-.9936-.9376-.8372.3812-1.8317.6977-2.8262.6977s-1.989-.3165-2.82617-.6977c-.68019-.3097-1.4303.331-.99364.9376.8123 1.1283 2.06451 2.2601 3.81981 2.2601z"/><path d="m15.5002 9.5c-1.3008 0-2.1786.6346-2.6333 1.0782-.2479.2419-.2711.613-.1162.9227.1432.2864.4753.4245.7838.339.5276-.1463 1.3435-.3399 1.9657-.3399.5763 0 1.1526.3321 1.5375.6136.1798.1314.4448.0064.4151-.2143-.1177-.8757-.5272-2.3993-1.9526-2.3993z"/><path d="m8.50024 9.5c1.30085 0 2.17866.6346 2.63336 1.0782.2479.2419.2711.613.1162.9227-.1432.2864-.4753.4245-.7838.339-.52763-.1463-1.34349-.3399-1.96576-.3399-.5763 0-1.1526.3321-1.5375.6136-.17979.1314-.44471.0064-.41505-.2143.11769-.8757.52724-2.3993 1.95255-2.3993z"/></g></svg>

<svg width="24" height="25" viewBox="0 0 24 25" fill="none" xmlns="http://www.w3.org/2000/svg">
<path d="M5.00003 4.5L5.31626 3.55132C5.05006 3.46258 4.75883 3.48977 4.51365 3.62625C4.26848 3.76273 4.09193 3.99593 4.02709 4.26893L5.00003 4.5ZM19 4.5L19.9703 4.25798C19.9029 3.98763 19.7257 3.75767 19.4815 3.62352C19.2373 3.48937 18.9481 3.4632 18.6838 3.55132L19 4.5ZM20 10.5L19.0035 10.583L20 10.5ZM4.00003 10.5L3.00453 10.4052L4.00003 10.5ZM19 4.5C18.0298 4.74202 18.0297 4.74195 18.0297 4.7419C18.0297 4.7419 18.0297 4.74186 18.0297 4.74186C18.0297 4.74185 18.0297 4.74189 18.0297 4.74197C18.0298 4.74214 18.0299 4.74249 18.03 4.74302C18.0303 4.74408 18.0307 4.74586 18.0313 4.74835C18.0326 4.75332 18.0345 4.76113 18.037 4.77168C18.0422 4.79278 18.05 4.82484 18.06 4.86712C18.0802 4.95168 18.1096 5.07707 18.1458 5.23738C18.2183 5.55814 18.3178 6.0179 18.425 6.56964C18.6401 7.67684 18.8831 9.13795 19.0035 10.583L20.9966 10.417C20.8679 8.87241 20.6108 7.33353 20.3882 6.18814C20.2766 5.61358 20.1728 5.13389 20.0967 4.79679C20.0586 4.62816 20.0274 4.495 20.0055 4.40326C19.9946 4.35739 19.986 4.32185 19.98 4.29739C19.977 4.28516 19.9747 4.2757 19.9731 4.26911C19.9722 4.26581 19.9716 4.26322 19.9711 4.26136C19.9709 4.26044 19.9707 4.25969 19.9706 4.25913C19.9705 4.25884 19.9705 4.25861 19.9704 4.25842C19.9704 4.25832 19.9704 4.25821 19.9703 4.25817C19.9703 4.25807 19.9703 4.25798 19 4.5ZM4.99553 10.5948C5.13363 9.14406 5.37767 7.67735 5.58901 6.56705C5.69437 6.0135 5.79094 5.55204 5.86095 5.22989C5.89594 5.06888 5.92426 4.94284 5.94368 4.85769C5.95339 4.81513 5.96087 4.7828 5.96585 4.76144C5.96833 4.75076 5.97019 4.74283 5.97139 4.73774C5.97199 4.73519 5.97242 4.73335 5.97269 4.73224C5.97282 4.73168 5.97291 4.7313 5.97296 4.73111C5.97298 4.73101 5.97299 4.73096 5.97299 4.73095C5.97299 4.73095 5.97299 4.73098 5.97299 4.73097C5.97298 4.73101 5.97297 4.73107 5.00003 4.5C4.02709 4.26893 4.02707 4.26901 4.02705 4.2691C4.02704 4.26914 4.02702 4.26924 4.027 4.26933C4.02696 4.2695 4.0269 4.26972 4.02684 4.26999C4.02671 4.27053 4.02654 4.27125 4.02633 4.27215C4.0259 4.27396 4.0253 4.27649 4.02454 4.27973C4.02301 4.28623 4.02082 4.29558 4.018 4.3077C4.01235 4.33195 4.00418 4.36728 3.99376 4.41294C3.97293 4.50427 3.94312 4.63699 3.90657 4.80516C3.8335 5.14136 3.73338 5.61994 3.62428 6.19307C3.4067 7.33615 3.15073 8.86945 3.00453 10.4052L4.99553 10.5948ZM19.0035 10.583C19.2308 13.3104 18.321 15.8148 16.8995 17.6344C15.4593 19.4778 13.5974 20.5 12 20.5V22.5C14.4026 22.5 16.7907 21.0222 18.4755 18.8656C20.179 16.6852 21.2693 13.6896 20.9966 10.417L19.0035 10.583ZM12 20.5C10.4002 20.5 8.52026 19.4753 7.07215 17.6322C5.64326 15.8136 4.73662 13.3144 4.99553 10.5948L3.00453 10.4052C2.69224 13.6856 3.7856 16.6864 5.49951 18.8678C7.1942 21.0247 9.59985 22.5 12 22.5V20.5ZM5.00003 4.5C4.6838 5.44868 4.684 5.44875 4.68421 5.44882C4.68429 5.44885 4.68451 5.44892 4.68468 5.44898C4.68502 5.44909 4.6854 5.44922 4.68584 5.44936C4.6867 5.44965 4.68775 5.44999 4.68897 5.4504C4.69143 5.45121 4.69462 5.45226 4.69854 5.45353C4.70637 5.45609 4.71709 5.45956 4.73066 5.46389C4.75778 5.47255 4.79625 5.48463 4.84559 5.49964C4.94424 5.52967 5.08641 5.57145 5.26816 5.62101C5.63152 5.72011 6.15396 5.85059 6.80391 5.98058C8.10183 6.24016 9.91912 6.5 12 6.5V4.5C10.0809 4.5 8.39823 4.25984 7.19614 4.01942C6.59609 3.89941 6.11854 3.77989 5.7944 3.69149C5.6324 3.6473 5.50894 3.61096 5.42791 3.58629C5.3874 3.57397 5.35751 3.56456 5.33874 3.55857C5.32935 3.55558 5.32274 3.55343 5.31897 3.5522C5.31709 3.55159 5.31592 3.5512 5.31546 3.55105C5.31523 3.55098 5.31518 3.55096 5.31532 3.551C5.31538 3.55103 5.31549 3.55106 5.31565 3.55112C5.31573 3.55114 5.31588 3.55119 5.31592 3.5512C5.31608 3.55126 5.31626 3.55132 5.00003 4.5ZM12 6.5C14.0809 6.5 15.8982 6.24016 17.1961 5.98058C17.8461 5.85059 18.3685 5.72011 18.7319 5.62101C18.9136 5.57145 19.0558 5.52967 19.1545 5.49964C19.2038 5.48463 19.2423 5.47255 19.2694 5.46389C19.283 5.45956 19.2937 5.45609 19.3015 5.45353C19.3054 5.45226 19.3086 5.45121 19.3111 5.4504C19.3123 5.44999 19.3134 5.44965 19.3142 5.44936C19.3147 5.44922 19.315 5.44909 19.3154 5.44898C19.3155 5.44892 19.3158 5.44885 19.3159 5.44882C19.3161 5.44875 19.3163 5.44868 19 4.5C18.6838 3.55132 18.684 3.55126 18.6841 3.5512C18.6842 3.55119 18.6843 3.55114 18.6844 3.55112C18.6846 3.55106 18.6847 3.55103 18.6847 3.551C18.6849 3.55096 18.6848 3.55098 18.6846 3.55105C18.6841 3.5512 18.683 3.55159 18.6811 3.5522C18.6773 3.55343 18.6707 3.55558 18.6613 3.55857C18.6425 3.56456 18.6127 3.57397 18.5721 3.58629C18.4911 3.61096 18.3677 3.6473 18.2057 3.69149C17.8815 3.77989 17.404 3.89941 16.8039 4.01942C15.6018 4.25984 13.9191 4.5 12 4.5V6.5Z" fill="black"/>
<path d="M12 18.5C13.7553 18.5 15.0075 17.3682 15.8198 16.2399C16.2565 15.6333 15.5064 14.9926 14.8262 15.3023C13.989 15.6835 12.9945 16 12 16C11.0055 16 10.011 15.6835 9.17383 15.3023C8.49364 14.9926 7.74353 15.6333 8.18019 16.2399C8.99249 17.3682 10.2447 18.5 12 18.5Z" fill="black"/>
<path d="M15.5002 9.5C14.1994 9.5 13.3216 10.1346 12.8669 10.5782C12.619 10.8201 12.5958 11.1912 12.7507 11.5009C12.8939 11.7873 13.226 11.9254 13.5345 11.8399C14.0621 11.6936 14.878 11.5 15.5002 11.5C16.0765 11.5 16.6528 11.8321 17.0377 12.1136C17.2175 12.245 17.4825 12.12 17.4528 11.8993C17.3351 11.0236 16.9256 9.5 15.5002 9.5Z" fill="black"/>
<path d="M8.50024 9.5C9.80109 9.5 10.6789 10.1346 11.1336 10.5782C11.3815 10.8201 11.4047 11.1912 11.2498 11.5009C11.1066 11.7873 10.7745 11.9254 10.466 11.8399C9.93837 11.6936 9.12251 11.5 8.50024 11.5C7.92394 11.5 7.34764 11.8321 6.96274 12.1136C6.78295 12.245 6.51803 12.12 6.54769 11.8993C6.66538 11.0236 7.07493 9.5 8.50024 9.5Z" fill="black"/>
</svg>
